X:1
T:Al onder de weg no Nijnof
C:Bert Van Vreckem
R:Schottisch
Z:Bert Van Vreckem <http://flanders.blackmill.net/music/>
M:4/4
L:1/4
K:Dm
DD/E/ FF|EE A,2|DD/E/ FG| AA A2|BB/A/ G/A/B|AA/G/ F/E/D|EE/F/ GG|[1FF E2:|[2E/D/C D2||
|:D/C/D/E/ FF|GG A>G|FF/E/ DD|EE A,2|D/C/D/E/ F/E/D|GG AA/G/|FF/G/ AA|C/D/E D2:|
AA/B/ cc|dd A>G|FF/E/ DD|EE A,2|AA/B/ cc|dd A>G|FF/E/ DD|E/D/C D2|]
